svg/device/bulb_2_fill.svg

<svg xmlns="http://www.w3.org/2000/svg" width="24" height="24" viewBox="0 0 24 24"><g fill="none" fill-rule="evenodd"><path d="M24,0 L24,24 L0,24 L0,0 L24,0 Z M12.5935,23.2578 L12.5819,23.2595 L12.5109,23.295 L12.4919,23.2987 L12.4767,23.295 L12.4057,23.2595 C12.3958,23.2564 12.387,23.259 12.3821,23.2649 L12.378,23.2758 L12.3609,23.7031 L12.3659,23.7235 L12.3769,23.7357 L12.4805,23.8097 L12.4953,23.8136 L12.5071,23.8097 L12.6107,23.7357 L12.6233,23.7197 L12.6267,23.7031 L12.6096,23.2758 C12.6076,23.2657 12.601,23.2593 12.5935,23.2578 Z M12.8584,23.1453 L12.8445,23.1473 L12.6598,23.2397 L12.6499,23.2499 L12.6472,23.2611 L12.6651,23.6906 L12.6699,23.7034 L12.6784,23.7105 L12.8793,23.8032 C12.8914,23.8069 12.9022,23.803 12.9078,23.7952 L12.9118,23.7812 L12.8777,23.1665 C12.8753,23.1546 12.8674,23.147 12.8584,23.1453 Z M12.143,23.1473 C12.1332,23.1424 12.1222,23.1453 12.1156,23.1526 L12.1099,23.1665 L12.0758,23.7812 C12.0751,23.7927 12.0828,23.8019 12.0926,23.8046 L12.1083,23.8032 L12.3092,23.7105 L12.3186,23.7024 L12.3225,23.6906 L12.3404,23.2611 L12.3372,23.2485 L12.3278,23.2397 L12.143,23.1473 Z"/><path fill="#09244B" d="M12,2 C7.30558,2 3.5,5.80558 3.5,10.5 C3.5,13.3732 4.92556,15.9134 7.10795,17.452 L8.55279,20.3416 C9.06096,21.358 10.0998,22 11.2361,22 L12.7639,22 C13.9002,22 14.939,21.358 15.4472,20.3416 L16.892,17.452 C19.0744,15.9134 20.5,13.3732 20.5,10.5 C20.5,5.80558 16.6944,2 12,2 Z M14.0003,18.7633 C13.3588,18.918 12.689,19 12,19 C11.311,19 10.6412,18.918 9.99968,18.7633 L10.3416,19.4472 C10.511,19.786 10.8573,20 11.2361,20 L12.7639,20 C13.1427,20 13.489,19.786 13.6584,19.4472 L14.0003,18.7633 Z"/></g></svg>

<svg xmlns="http://www.w3.org/2000/svg" width="24" height="24"><g fill="none" fill-rule="evenodd"><path d="M24 0v24H0V0zM12.594 23.258l-.012.002-.071.035-.02.004-.014-.004-.071-.036c-.01-.003-.019 0-.024.006l-.004.01-.017.428.005.02.01.013.104.074.015.004.012-.004.104-.074.012-.016.004-.017-.017-.427c-.002-.01-.009-.017-.016-.018m.264-.113-.014.002-.184.093-.01.01-.003.011.018.43.005.012.008.008.201.092c.012.004.023 0 .029-.008l.004-.014-.034-.614c-.003-.012-.01-.02-.02-.022m-.715.002a.023.023 0 0 0-.027.006l-.006.014-.034.614c0 .012.007.02.017.024l.015-.002.201-.093.01-.008.003-.011.018-.43-.003-.012-.01-.01z"/><path fill="#09244B" d="M12 2a8.5 8.5 0 0 0-4.892 15.452l1.445 2.89A3 3 0 0 0 11.236 22h1.528a3 3 0 0 0 2.683-1.658l1.445-2.89A8.5 8.5 0 0 0 12 2m2 16.763A8.523 8.523 0 0 1 12 19a8.524 8.524 0 0 1-2-.237l.342.684a1 1 0 0 0 .894.553h1.528a1 1 0 0 0 .894-.553z"/></g></svg>
